svg/question.svg

<svg height="1024" width="1024" xmlns="http://www.w3.org/2000/svg">
  <path d="M448 768h128V640H448V768zM512 256c0 0-192 0-192 192 8 1.344 128 0 128 0s0-64 64-64 64 64 64 64c0 64-129.781 64-129.781 128H576c0 0 128 0 128-160S512 256 512 256zM512 0C229.25 0 0 229.25 0 512s229.25 512 512 512 512-229.25 512-512S794.75 0 512 0zM512 896c-212.031 0-384-172-384-384 0-212.031 171.969-384 384-384 212 0 384 171.969 384 384C896 724 724 896 512 896z" />
</svg>

<svg height="1024" width="1024" xmlns="http://www.w3.org/2000/svg">
  <path d="M448 768h128v-128h-128v128z m64-512c-96 0-192 96-192 192h128c0-32 32-64 64-64s64 32 64 64c0 64-128 64-128 128h128c64-22 128-64 128-160s-96-160-192-160z m0-256c-283 0-512 229-512 512s229 512 512 512 512-229 512-512-229-512-512-512z m0 896c-212 0-384-172-384-384s172-384 384-384 384 172 384 384-172 384-384 384z" />
</svg>
